!!!!SEGMENT: pl-wtm--r-730-27-m_moniuszko-stanislaw--piesn.krn
!!!cenid: 18xx:1707
!!!COM: Moniuszko, Stanisław
!!!COM-rismID: pe30008351
!!!CDT: 1819/05/05-1872/06/04
!!!CNT: Polish
!!!OTL: Pieśń
!!!PDT:
!!!AGN: Secular
!!!SMS-siglum: PL-Wtm
!!!SMS-shelfmark: R 730/27/M
!!!SMS-shelfwork: W
!!!SMS-variant:
!!!SMS-altvar:
!!!NIFC-rismSourceID: 1001099839
!!!NIFC-islandoraID:
!!!URL-pdf-islandora:
!!!URL-scan:
!!!ONB-nifc: Skan 0030, No. 779
!!!AIN: 1 piano 1 soprn
!!!key:
**kern	**kern	**kern
*part2	*part2	*part1
*staff3	*staff2	*staff1
*Ipiano	*Iempty	*Isoprn
*I"Piano	*	*I"Soprano
*I'P-no	*	*I'S.
*clefF4	*clefG2	*clefG2
*k[]	*k[]	*k[]
*a:	*a:	*a:
*M3/4	*M3/4	*M3/4
=1	=1	=1
!	!	!LO:TX:t=P:problem=all\right&colon; global
4AA\	8r	2.ryy
.	16E</LL 16A< 16c 16e	.
.	16E</JJ 16A< 16c 16e	.
4r	8E</L 8A< 8c 8e	.
.	8E</J 8A< 8c 8e	.
4EE\	8E</L 8G#X< 8B 8e	.
.	8E</J 8G#< 8B 8e	.
=2	=2	=2
*2\right	*	*
2AA\	8r	4ryy
.	16A/LL 16c 16e	.
.	16A/JJ 16c 16e	.
*	*tremolo	*
.	8A/ 8c 8eL	8ryy
.	8A/ 8c 8e	8e/
4r	8A/ 8c 8e	8a/
.	8A/ 8c 8eJ	8cc/
*	*Xtremolo	*
=3	=3	=3
4AA\	8r	4ee\
.	16E</LL 16A< 16c<	.
.	16E</JJ 16A< 16c<	.
4r	8E</L 8A< 8c<	8ee\
.	8F</ 8A< 8c<	8dd#X\
4r	8E</ 8A< 8c<	8ee\
.	8D</J 8F< 8A<	8a/
=4	=4	=4
2.ryy	8r<	4cc\
.	16E</LL 16A< 16c<	.
.	16E</JJ 16A< 16c<	.
*	*tremolo	*
.	8E</ 8A< 8c<L	8cc\
.	8E</ 8A< 8c<	8ee\
.	8E</ 8A< 8c<	8dd\
.	8E</ 8A< 8c<J	8cc\
*	*Xtremolo	*
=5	=5	=5
4AA\	8r<	4cc\
.	16F</LL 16A< 16d<	.
.	16F</JJ 16A< 16d<	.
*	*tremolo	*
4r	8F</ 8A< 8d<L	8b\
.	8F</ 8A< 8d<	8dd\
4r	8F</ 8A< 8d<	8cc\
.	8F</ 8A< 8d<J	8b\
*	*Xtremolo	*
=6	=6	=6
4AA\	8r<	16cc/LL
.	.	16b/JJ
.	16E</LL 16A< 16c<	8a/
.	16E</JJ 16A< 16c<	.
*	*tremolo	*
4r	8E</ 8A< 8c<L	8r
.	8E</ 8A< 8c<	8e/
4r	8E</ 8A< 8c<	8a/
.	8E</ 8A< 8c<J	8cc/
*	*Xtremolo	*
=7	=7	=7
4AA\	8r<	4ee\
.	16E</LL 16A< 16c<	.
.	16E</JJ 16A< 16c<	.
4ryy	8E</L 8A< 8c<	8ee\
.	8F</ 8A< 8c<	8dd#X\
4ryy	8E</ 8A< 8c<	8ee\
.	8D</J 8F< 8A<	8a/
=8	=8	=8
4AA\	8r<	4cc\
.	16E</LL 16A< 16c<	.
.	16E</JJ 16A< 16c<	.
*	*tremolo	*
4r	8E</ 8A< 8c<L	8cc\
.	8E</ 8A< 8c<J	8cc\
4FF#X\	8D#X</ 8A< 8c<L	8b\
.	8D#X</ 8A< 8c<J	8cc\
*	*Xtremolo	*
=9	=9	=9
8GG\L	8E</L 8G< 8e<	4gg\
16GG\L	16G</L 16e<	.
16GG\JJ	16G</JJ 16e<	.
8GG\L	(8G</L 8e<	8gg\
8GG\	8A</ 8d#X<	8ff#X\
8GG\	8B</ 8dn<	8ffn\
8GG\J	8B</J) 8d<	8dd
!!LO:LB:g=original
=10	=10	=10
4CC\ 4C	8r<	4dd#X\
.	16G</LL 16c 16e	.
.	16G</JJ 16c 16e	.
4r	2G</ 2c 2e	16ee\
.	.	16r
.	.	8ee\
4r	.	8ee\
.	.	8ee\
=11	=11	=11
4C\	8r	4ee\
*	*	*
.	16A-X</LL 16B< 16f	.
.	16A-</JJ 16B< 16f	.
*	*tremolo	*
4ryy	8A-</ 8B< 8fL	16dd\
.	.	16r
.	8A-</ 8B< 8f	8dd\
4ryy	8A-</ 8B< 8f	8dd\
.	8A-</ 8B< 8fJ	8dd\
*	*Xtremolo	*
=12	=12	=12
4CC\ 4C	8r	4dd\
.	16G</LL 16c 16e	.
.	16G</JJ 16c 16e	.
*	*tremolo	*
4r	8G</ 8c 8eL	16cc\
.	.	16r
.	8G/ 8c 8eJ	8cc\
4AAA\ 4AA	8E</ 8G< 8c<L	8dd\
.	8E</ 8G< 8c<J	8cc\
*	*Xtremolo	*
=13	=13	=13
4BBB\ 4BB	8r<	4b\
.	16E#X</LL 16G< 16B<	.
.	16E#</JJ 16G< 16B<	.
*	*tremolo	*
4r	8E#</ 8G< 8B<L	8b\
.	8E#</ 8G< 8B<J	8b\
4r	8F</ 8A< 8B<L	8dd#X\
.	8F</ 8A< 8B<J	8b\
*	*Xtremolo	*
=14	=14	=14
2FF\	8r<	4ddn\
.	16D</LL 16A< 16d<	.
.	16D</JJ 16A< 16d<	.
*	*tremolo	*
.	8D</ 8A< 8d<L	8dd\
.	8D</ 8A< 8d<J	8ff\
4EE\	8E</ 8G#X< 8d<L	8ee\
.	8E</ 8G#X< 8d<J	8a\
*	*Xtremolo	*
=15	=15	=15
4AAA\ 4AA	8r<	4dd\
.	16E</LL 16A< 16c<	.
.	16E</JJ 16A< 16c<	.
*	*tremolo	*
4r	8E</L 8A< 8c<	8cc\
.	8F</ 8A< 8d<	16ee\LL
.	.	16dd\JJ
4r	8E</ 8A< 8c#X<	8cc\
.	8D</J 8F< 8G#X< 8B<	8b\
*	*Xtremolo	*
=16	=16	=16
.	.	(8qb/
4ryy	8r<	4a/)
.	16C</LL 16E< 16A<	.
.	16C</JJ 16E< 16A<	.
*	*tremolo	*
4ryy	8C</ 8E< 8A<L	4a/
.	8C</ 8E< 8A<J	.
*	*Xtremolo	*
*Xtuplet	*Xtuplet	*
12DD\L	12D</L 12F< 12A<	4r
12AA\	12C</ 12E< 12A<	.
12DD\J	12D</J 12F< 12A<	.
=17:|!	=17:|!	=17:|!
2.AAA\	2.E<;/ 2.A< 2.c<	2.r;
==	==	==
*-	*-	*-
!!!system-decoration: s1{(s2,s3)}
!!!RDF**kern: > = above
!!!RDF**kern: < = below
!!!EED: Leszek Kubiak
!!!EEV: 2021-04-20
!!!ENC: Katarzyna Serwa
!!!END: 2021-03-31
